assets/svgs/misc-grey/MiscGrey101.svg

<svg width="50" height="47" viewBox="0 0 50 47" fill="none" xmlns="http://www.w3.org/2000/svg">
<path fill-rule="evenodd" clip-rule="evenodd" d="M30.553 33.15V34.94C30.553 35.77 31.225 36.44 32.053 36.44C32.882 36.44 33.553 35.77 33.553 34.94V33.14C34.473 32.62 35.101 31.64 35.101 30.51C35.101 28.83 33.733 27.46 32.053 27.46C30.373 27.46 29.006 28.83 29.006 30.51C29.006 31.62 29.607 32.62 30.553 33.15ZM46.006 39.42C46.002 39.8 45.885 43.05 43.009 43.17C38.662 43.34 21.371 43.18 21.16 43.18C21.141 43.18 20.042 43.16 19.2 42.33C18.47 41.61 18.1 40.45 18.1 38.89V21.26H46.006V39.42ZM47.506 18.26H23.276V11.2C23.277 11 23.273 6.25002 20.043 2.99002C18.121 1.06002 15.513 0.0800171 12.291 0.0800171C3.60898 0.0800171 0.932976 7.29002 0.729976 11.11C0.686976 11.93 1.31898 12.64 2.14398 12.68C2.97698 12.73 3.67698 12.1 3.72598 11.27C3.74598 10.94 4.30798 3.08002 12.291 3.08002C15.597 3.08002 17.931 4.38002 19.228 6.96002C20.265 9.02002 20.276 11.16 20.276 11.19V18.26H16.6C15.771 18.26 15.1 18.94 15.1 19.76V38.89C15.1 41.29 15.771 43.16 17.095 44.47C18.823 46.17 20.963 46.17 21.168 46.18C21.623 46.19 28.6 46.25 34.755 46.25C38.272 46.25 41.522 46.23 43.131 46.16C47.778 45.98 49.006 41.68 49.006 39.43V19.76C49.006 18.94 48.335 18.26 47.506 18.26Z" fill="#1A1919"/>
</svg>

<svg xmlns="http://www.w3.org/2000/svg" fill="none" viewBox="0 0 50 47"><path fill="#1A1919" fill-rule="evenodd" d="M30.553 33.15v1.79a1.5 1.5 0 103 0v-1.8c.92-.52 1.548-1.5 1.548-2.63 0-1.68-1.368-3.05-3.048-3.05a3.053 3.053 0 00-3.047 3.05c0 1.11.601 2.11 1.547 2.64zm15.453 6.27c-.004.38-.121 3.63-2.997 3.75-4.347.17-21.638.01-21.849.01-.019 0-1.118-.02-1.96-.85-.73-.72-1.1-1.88-1.1-3.44V21.26h27.906v18.16zm1.5-21.16h-24.23V11.2c.001-.2-.003-4.95-3.233-8.21-1.922-1.93-4.53-2.91-7.752-2.91C3.609.08.933 7.29.73 11.11c-.043.82.589 1.53 1.414 1.57.833.05 1.533-.58 1.582-1.41.02-.33.582-8.19 8.565-8.19 3.306 0 5.64 1.3 6.937 3.88 1.037 2.06 1.048 4.2 1.048 4.23v7.07H16.6c-.829 0-1.5.68-1.5 1.5v19.13c0 2.4.671 4.27 1.995 5.58 1.728 1.7 3.868 1.7 4.073 1.71.455.01 7.432.07 13.587.07 3.517 0 6.767-.02 8.376-.09 4.647-.18 5.875-4.48 5.875-6.73V19.76c0-.82-.671-1.5-1.5-1.5z" clip-rule="evenodd"/></svg>
